Numix-GalliumOS/24/devices/gnome-dev-network.svg

<?xml version="1.0" encoding="UTF-8" standalone="no"?>
<svg
   xmlns:dc="http://purl.org/dc/elements/1.1/"
   xmlns:cc="http://creativecommons.org/ns#"
   xmlns:rdf="http://www.w3.org/1999/02/22-rdf-syntax-ns#"
   xmlns:svg="http://www.w3.org/2000/svg"
   xmlns="http://www.w3.org/2000/svg"
   xmlns:sodipodi="http://sodipodi.sourceforge.net/DTD/sodipodi-0.dtd"
   xmlns:inkscape="http://www.inkscape.org/namespaces/inkscape"
   width="24"
   height="24"
   viewBox="0 0 24 24"
   id="svg1589"
   version="1.1"
   inkscape:version="0.91 r"
   sodipodi:docname="gnome-dev-network.svg">
  <metadata
     id="metadata1601">
    <rdf:RDF>
      <cc:Work
         rdf:about="">
        <dc:format>image/svg+xml</dc:format>
        <dc:type
           rdf:resource="http://purl.org/dc/dcmitype/StillImage" />
      </cc:Work>
    </rdf:RDF>
  </metadata>
  <defs
     id="defs1599" />
  <sodipodi:namedview
     pagecolor="#ffffff"
     bordercolor="#666666"
     borderopacity="1"
     objecttolerance="10"
     gridtolerance="10"
     guidetolerance="10"
     inkscape:pageopacity="0"
     inkscape:pageshadow="2"
     inkscape:window-width="640"
     inkscape:window-height="480"
     id="namedview1597" />
  <g
     style="fill-opacity:.8"
     id="g1591">
    <path
       style="fill:#ededec"
       d="M 2.617188 4.027344 C 2.28125 4.097656 2.019531 4.429688 2.023438 4.773438 L 2.023438 18.726562 C 2.023438 19.117188 2.382812 19.472656 2.773438 19.472656 L 21.226562 19.472656 C 21.617188 19.472656 21.976562 19.117188 21.976562 18.726562 L 21.976562 6.285156 C 21.976562 5.894531 21.617188 5.535156 21.226562 5.535156 L 13.996094 5.535156 L 13.996094 4.773438 C 13.996094 4.382812 13.636719 4.027344 13.246094 4.027344 L 2.773438 4.027344 C 2.722656 4.019531 2.667969 4.019531 2.617188 4.027344 Z "
       id="path1593" />
    <path
       style="fill:#000"
       d="M 2.59375 4 C 2.253906 4.070312 1.992188 4.40625 2 4.75 L 2 18.75 C 2 19.144531 2.355469 19.5 2.75 19.5 L 21.25 19.5 C 21.644531 19.5 22 19.144531 22 18.75 L 22 6.265625 C 22 5.871094 21.644531 5.515625 21.25 5.515625 L 14 5.515625 L 14 4.75 C 14 4.355469 13.644531 4 13.25 4 L 2.75 4 C 2.699219 3.996094 2.644531 3.996094 2.59375 4 Z M 11.5 8 L 12 8 C 14.207031 8 16 9.792969 16 12 C 16 14.207031 14.707031 16 12 16 C 9.5 16 8 14.207031 8 12 C 8 9.792969 9.792969 8 11.5 8 Z M 12.328125 8.5625 C 12.324219 8.578125 12.332031 8.574219 12.328125 8.59375 C 12.292969 8.933594 12.101562 8.714844 12.03125 8.75 C 11.960938 8.785156 11.484375 9.445312 11.484375 9.375 C 11.484375 9.304688 11.578125 9.203125 11.578125 9.203125 C 11.578125 9.203125 11.605469 8.902344 11.546875 8.578125 C 11.390625 8.597656 11.242188 8.617188 11.09375 8.65625 L 10.625 9.421875 C 10.664062 9.429688 10.714844 9.4375 10.765625 9.46875 C 11.015625 9.613281 11.117188 9.75 11.1875 9.765625 C 11.257812 9.785156 11.574219 9.332031 11.34375 9.8125 C 11.113281 10.292969 11.003906 10.457031 10.734375 10.5625 C 10.71875 10.566406 10.703125 10.570312 10.6875 10.578125 C 10.617188 10.660156 10.523438 10.742188 10.40625 10.84375 C 10.152344 11.070312 10.03125 11.101562 10.03125 11.328125 C 10.03125 11.554688 10.035156 11.730469 9.859375 12.03125 C 9.683594 12.332031 9.566406 12.320312 9.640625 12.546875 C 9.714844 12.773438 9.765625 13.175781 9.640625 13 C 9.515625 12.824219 9.570312 12.472656 9.46875 12.671875 C 9.378906 12.847656 9.171875 12.914062 9.15625 13.09375 C 9.152344 13.117188 9.148438 13.140625 9.15625 13.171875 C 9.15625 13.175781 9.15625 13.179688 9.15625 13.1875 C 9.222656 13.402344 9.59375 13.109375 9.59375 13.28125 C 9.59375 13.457031 9.269531 13.445312 9.34375 13.59375 C 9.417969 13.742188 9.714844 13.300781 9.96875 13.375 C 10.222656 13.449219 10.054688 13.492188 10.28125 13.59375 C 10.507812 13.695312 10.640625 13.804688 10.640625 13.953125 C 10.640625 14.101562 11.355469 14.03125 11.28125 14.28125 C 11.207031 14.53125 11.132812 14.476562 10.90625 14.75 C 10.78125 14.902344 10.667969 14.988281 10.59375 15.0625 C 10.695312 15.136719 10.722656 15.179688 10.84375 15.140625 C 11.003906 15.085938 10.796875 15.007812 10.921875 14.9375 C 10.953125 14.917969 10.964844 14.90625 10.984375 14.890625 C 11.003906 14.875 11.023438 14.855469 11.0625 14.84375 C 11.136719 14.820312 11.292969 14.8125 11.640625 14.8125 C 12.335938 14.8125 12.671875 14.84375 12.671875 14.84375 C 12.671875 14.84375 12.902344 14.84375 12.6875 14.96875 C 12.53125 15.058594 12.210938 15.222656 12.171875 15.265625 C 12.1875 15.265625 12.226562 15.261719 12.265625 15.25 C 12.585938 15.160156 13.03125 15.082031 13.15625 15.046875 C 13.210938 15.03125 13.488281 14.886719 13.71875 14.78125 C 13.726562 14.757812 13.726562 14.742188 13.734375 14.71875 L 13.71875 14.71875 C 13.542969 14.644531 13.402344 14.304688 13.453125 14.203125 C 13.503906 14.101562 13.625 14.019531 13.75 13.765625 C 13.875 13.511719 13.855469 13.6875 13.5 13.234375 C 13.144531 12.78125 12.957031 13.261719 12.78125 13.109375 C 12.605469 12.957031 12.246094 12.824219 12.09375 12.546875 C 11.941406 12.269531 12.015625 12.476562 12.015625 12.171875 C 12.015625 11.867188 11.988281 12.097656 12.0625 11.84375 C 12.136719 11.589844 12.339844 11.566406 12.59375 11.390625 C 12.628906 11.367188 12.667969 11.359375 12.703125 11.34375 C 12.648438 11.289062 12.5625 11.171875 12.40625 11.015625 C 12.40625 11.015625 12.5625 10.691406 12.6875 10.640625 C 12.808594 10.59375 12.882812 10.609375 13.046875 10.65625 C 13.054688 10.628906 13.054688 10.625 13.0625 10.5625 C 13.085938 10.359375 12.984375 10.46875 12.984375 10.34375 C 12.984375 10.21875 13.042969 10.347656 13.21875 10.296875 C 13.394531 10.246094 13.402344 9.902344 13.578125 9.953125 C 13.753906 10.003906 13.753906 9.882812 13.90625 9.65625 C 14.058594 9.429688 13.90625 9.554688 13.703125 9.453125 C 13.5 9.351562 13.675781 9.605469 13.625 9.78125 C 13.574219 9.957031 13.425781 9.847656 13.25 9.46875 C 13.074219 9.089844 13.226562 9.242188 13.328125 8.9375 C 13.347656 8.882812 13.367188 8.859375 13.390625 8.828125 C 13.0625 8.683594 12.699219 8.597656 12.328125 8.5625 Z M 13 9.90625 C 13.078125 9.917969 13.132812 10.003906 13.171875 10.078125 C 13.191406 10.121094 13.179688 10.132812 13.15625 10.140625 C 13.15625 10.140625 13.1875 10.226562 13.1875 10.25 C 13.1875 10.273438 13.136719 10.265625 13.015625 10.234375 C 12.925781 10.210938 12.984375 10.203125 13.046875 10.15625 L 12.9375 10.15625 C 12.894531 10.15625 12.871094 10.148438 12.859375 10.140625 C 12.867188 10.144531 12.863281 10.144531 12.875 10.15625 C 12.890625 10.171875 12.890625 10.183594 12.890625 10.1875 C 12.871094 10.1875 12.824219 10.179688 12.78125 10.1875 C 12.699219 10.207031 12.789062 10.148438 12.828125 10.078125 C 12.828125 10.078125 12.851562 10.09375 12.859375 10.109375 C 12.875 10.074219 12.90625 10.011719 12.90625 9.921875 C 12.9375 9.910156 12.972656 9.898438 13 9.90625 Z M 14.90625 10.125 C 14.78125 10.21875 14.617188 10.429688 14.484375 10.5625 C 14.257812 10.789062 14.609375 10.816406 14.734375 10.84375 C 14.859375 10.871094 14.980469 10.78125 15.234375 10.78125 C 15.230469 10.769531 15.222656 10.761719 15.21875 10.75 C 15.183594 10.753906 15.152344 10.765625 15.109375 10.765625 C 14.960938 10.765625 15.058594 10.625 15.09375 10.421875 C 15.042969 10.320312 14.96875 10.222656 14.90625 10.125 Z M 13.34375 10.59375 C 13.289062 10.578125 13.207031 10.632812 13.109375 10.6875 C 13.179688 10.789062 12.96875 11.066406 12.859375 11.265625 C 12.855469 11.269531 12.847656 11.273438 12.84375 11.28125 C 13.058594 11.246094 13.402344 11.296875 14.15625 11.484375 C 14.15625 11.484375 14.433594 11.414062 14.484375 11.515625 C 14.503906 11.550781 14.601562 11.570312 14.71875 11.578125 C 15.023438 11.457031 14.859375 11.351562 14.859375 11.109375 C 14.859375 10.855469 14.480469 11.140625 14.53125 11.015625 C 14.582031 10.890625 14.472656 10.894531 14.296875 10.71875 C 14.121094 10.542969 14.15625 11.15625 14.03125 11.03125 C 13.90625 10.90625 13.894531 11.007812 13.84375 10.90625 C 13.792969 10.804688 13.625 10.640625 13.625 10.640625 C 13.625 10.640625 13.742188 10.777344 13.71875 11.03125 C 13.695312 11.285156 13.34375 11.0625 13.34375 11.0625 C 13.34375 11.0625 13.398438 11.039062 13.5 11.015625 C 13.601562 10.992188 13.480469 10.832031 13.40625 10.65625 C 13.386719 10.613281 13.367188 10.601562 13.34375 10.59375 Z M 15.46875 11.84375 C 15.441406 11.863281 15.394531 11.894531 15.359375 11.90625 C 15.082031 12.007812 14.890625 12.21875 14.890625 12.21875 C 14.890625 12.21875 15.210938 12.21875 15.4375 12.421875 C 15.453125 12.285156 15.46875 12.140625 15.46875 12 C 15.46875 11.949219 15.472656 11.894531 15.46875 11.84375 Z "
       id="path1595" />
  </g>
</svg>

<svg xmlns="http://www.w3.org/2000/svg" viewBox="0 0 24 24">
 <g style="fill-opacity:0.8">
  <path d="m 2.617 4.03 c -0.336 0.07 -0.598 0.402 -0.594 0.746 l 0 13.953 c 0 0.391 0.359 0.746 0.75 0.746 l 18.453 0 c 0.391 0 0.75 -0.355 0.75 -0.746 l 0 -12.441 c 0 -0.391 -0.359 -0.75 -0.75 -0.75 l -7.23 0 l 0 -0.762 c 0 -0.391 -0.359 -0.746 -0.75 -0.746 l -10.473 0 c -0.051 -0.008 -0.105 -0.008 -0.156 0 Z" style="fill:#ededec"/>
  <path d="m 2.594 4 c -0.34 0.07 -0.602 0.406 -0.594 0.75 l 0 14 c 0 0.395 0.355 0.75 0.75 0.75 l 18.5 0 c 0.395 0 0.75 -0.355 0.75 -0.75 l 0 -12.484 c 0 -0.395 -0.355 -0.75 -0.75 -0.75 l -7.25 0 l 0 -0.766 c 0 -0.395 -0.355 -0.75 -0.75 -0.75 l -10.5 0 c -0.051 -0.004 -0.105 -0.004 -0.156 0 m 8.906 4 l 0.5 0 c 2.207 0 4 1.793 4 4 c 0 2.207 -1.293 4 -4 4 c -2.5 0 -4 -1.793 -4 -4 c 0 -2.207 1.793 -4 3.5 -4 m 0.828 0.563 c -0.004 0.016 0.004 0.012 0 0.031 c -0.035 0.34 -0.227 0.121 -0.297 0.156 c -0.07 0.035 -0.547 0.695 -0.547 0.625 c 0 -0.07 0.094 -0.172 0.094 -0.172 c 0 0 0.027 -0.301 -0.031 -0.625 c -0.156 0.02 -0.305 0.039 -0.453 0.078 l -0.469 0.766 c 0.039 0.008 0.09 0.016 0.141 0.047 c 0.25 0.145 0.352 0.281 0.422 0.297 c 0.07 0.02 0.387 -0.434 0.156 0.047 c -0.23 0.48 -0.34 0.645 -0.609 0.75 c -0.016 0.004 -0.031 0.008 -0.047 0.016 c -0.07 0.082 -0.164 0.164 -0.281 0.266 c -0.254 0.227 -0.375 0.258 -0.375 0.484 c 0 0.227 0.004 0.402 -0.172 0.703 c -0.176 0.301 -0.293 0.289 -0.219 0.516 c 0.074 0.227 0.125 0.629 0 0.453 c -0.125 -0.176 -0.07 -0.527 -0.172 -0.328 c -0.09 0.176 -0.297 0.242 -0.313 0.422 c -0.004 0.023 -0.008 0.047 0 0.078 c 0 0.004 0 0.008 0 0.016 c 0.066 0.215 0.438 -0.078 0.438 0.094 c 0 0.176 -0.324 0.164 -0.25 0.313 c 0.074 0.148 0.371 -0.293 0.625 -0.219 c 0.254 0.074 0.086 0.117 0.313 0.219 c 0.227 0.102 0.359 0.211 0.359 0.359 c 0 0.148 0.715 0.078 0.641 0.328 c -0.074 0.25 -0.148 0.195 -0.375 0.469 c -0.125 0.152 -0.238 0.238 -0.313 0.313 c 0.102 0.074 0.129 0.117 0.25 0.078 c 0.16 -0.055 -0.047 -0.133 0.078 -0.203 c 0.031 -0.02 0.043 -0.031 0.063 -0.047 c 0.02 -0.016 0.039 -0.035 0.078 -0.047 c 0.074 -0.023 0.23 -0.031 0.578 -0.031 c 0.695 0 1.031 0.031 1.031 0.031 c 0 0 0.23 0 0.016 0.125 c -0.156 0.09 -0.477 0.254 -0.516 0.297 c 0.016 0 0.055 -0.004 0.094 -0.016 c 0.32 -0.09 0.766 -0.168 0.891 -0.203 c 0.055 -0.016 0.332 -0.16 0.563 -0.266 c 0.008 -0.023 0.008 -0.039 0.016 -0.063 l -0.016 0 c -0.176 -0.074 -0.316 -0.414 -0.266 -0.516 c 0.051 -0.102 0.172 -0.184 0.297 -0.438 c 0.125 -0.254 0.105 -0.078 -0.25 -0.531 c -0.355 -0.453 -0.543 0.027 -0.719 -0.125 c -0.176 -0.152 -0.535 -0.285 -0.688 -0.563 c -0.152 -0.277 -0.078 -0.07 -0.078 -0.375 c 0 -0.305 -0.027 -0.074 0.047 -0.328 c 0.074 -0.254 0.277 -0.277 0.531 -0.453 c 0.035 -0.023 0.074 -0.031 0.109 -0.047 c -0.055 -0.055 -0.141 -0.172 -0.297 -0.328 c 0 0 0.156 -0.324 0.281 -0.375 c 0.121 -0.047 0.195 -0.031 0.359 0.016 c 0.008 -0.027 0.008 -0.031 0.016 -0.094 c 0.023 -0.203 -0.078 -0.094 -0.078 -0.219 c 0 -0.125 0.059 0.004 0.234 -0.047 c 0.176 -0.051 0.184 -0.395 0.359 -0.344 c 0.176 0.051 0.176 -0.07 0.328 -0.297 c 0.152 -0.227 0 -0.102 -0.203 -0.203 c -0.203 -0.102 -0.027 0.152 -0.078 0.328 c -0.051 0.176 -0.199 0.066 -0.375 -0.313 c -0.176 -0.379 -0.023 -0.227 0.078 -0.531 c 0.02 -0.055 0.039 -0.078 0.063 -0.109 c -0.328 -0.145 -0.691 -0.23 -1.063 -0.266 m 0.672 1.344 c 0.078 0.012 0.133 0.098 0.172 0.172 c 0.02 0.043 0.008 0.055 -0.016 0.063 c 0 0 0.031 0.086 0.031 0.109 c 0 0.023 -0.051 0.016 -0.172 -0.016 c -0.09 -0.023 -0.031 -0.031 0.031 -0.078 l -0.109 0 c -0.043 0 -0.066 -0.008 -0.078 -0.016 c 0.008 0.004 0.004 0.004 0.016 0.016 c 0.016 0.016 0.016 0.027 0.016 0.031 c -0.02 0 -0.066 -0.008 -0.109 0 c -0.082 0.02 0.008 -0.039 0.047 -0.109 c 0 0 0.023 0.016 0.031 0.031 c 0.016 -0.035 0.047 -0.098 0.047 -0.188 c 0.031 -0.012 0.066 -0.023 0.094 -0.016 m 1.906 0.219 c -0.125 0.094 -0.289 0.305 -0.422 0.438 c -0.227 0.227 0.125 0.254 0.25 0.281 c 0.125 0.027 0.246 -0.063 0.5 -0.063 c -0.004 -0.012 -0.012 -0.02 -0.016 -0.031 c -0.035 0.004 -0.066 0.016 -0.109 0.016 c -0.148 0 -0.051 -0.141 -0.016 -0.344 c -0.051 -0.102 -0.125 -0.199 -0.188 -0.297 m -1.563 0.469 c -0.055 -0.016 -0.137 0.039 -0.234 0.094 c 0.07 0.102 -0.141 0.379 -0.25 0.578 c -0.004 0.004 -0.012 0.008 -0.016 0.016 c 0.215 -0.035 0.559 0.016 1.313 0.203 c 0 0 0.277 -0.07 0.328 0.031 c 0.02 0.035 0.117 0.055 0.234 0.063 c 0.305 -0.121 0.141 -0.227 0.141 -0.469 c 0 -0.254 -0.379 0.031 -0.328 -0.094 c 0.051 -0.125 -0.059 -0.121 -0.234 -0.297 c -0.176 -0.176 -0.141 0.438 -0.266 0.313 c -0.125 -0.125 -0.137 -0.023 -0.188 -0.125 c -0.051 -0.102 -0.219 -0.266 -0.219 -0.266 c 0 0 0.117 0.137 0.094 0.391 c -0.023 0.254 -0.375 0.031 -0.375 0.031 c 0 0 0.055 -0.023 0.156 -0.047 c 0.102 -0.023 -0.02 -0.184 -0.094 -0.359 c -0.02 -0.043 -0.039 -0.055 -0.063 -0.063 m 2.125 1.25 c -0.027 0.02 -0.074 0.051 -0.109 0.063 c -0.277 0.102 -0.469 0.313 -0.469 0.313 c 0 0 0.32 0 0.547 0.203 c 0.016 -0.137 0.031 -0.281 0.031 -0.422 c 0 -0.051 0.004 -0.105 0 -0.156 Z" style="fill:#000"/>
 </g>
</svg>
